source/assets/logos/adc.svg

<svg xmlns="http://www.w3.org/2000/svg" version="1.0" viewBox="0 0 878 333"><path fill="#FFF" fill-opacity=".2" d="M567.3 125.7c.9.2 2.5.2 3.5 0 .9-.3.1-.5-1.8-.5s-2.7.2-1.7.5m-39.2 37.9c0 1.1.3 1.4.6.6.3-.7.2-1.6-.1-1.9-.3-.4-.6.2-.5 1.3m0 7c0 1.1.3 1.4.6.6.3-.7.2-1.6-.1-1.9-.3-.4-.6.2-.5 1.3m-207.3 23.1c5.6.2 14.8.2 20.5 0 5.6-.1 1-.3-10.3-.3s-15.9.2-10.2.3m-50 37c3.9.2 10.5.2 14.5 0 3.9-.1.7-.3-7.3-.3s-11.2.2-7.2.3m104 0c2.8.2 7.6.2 10.5 0 2.8-.2.5-.3-5.3-.3s-8.1.1-5.2.3m35.5 0c6.4.2 17 .2 23.5 0 6.4-.1 1.1-.3-11.8-.3s-18.2.2-11.7.3"/><path fill="#FFF" fill-opacity=".4" d="m519.4 119.2-1.9 2.3 2.3-1.9c1.2-1.1 2.2-2.1 2.2-2.3 0-.8-.8-.2-2.6 1.9m-29.4 2.3c1.3 1.4 2.6 2.5 2.8 2.5.3 0-.5-1.1-1.8-2.5s-2.6-2.5-2.8-2.5c-.3 0 .5 1.1 1.8 2.5m48 73.9c0 .2.8 1 1.8 1.7 1.5 1.3 1.6 1.2.3-.4s-2.1-2.1-2.1-1.3m-145.2 35.3c1.2.2 3 .2 4 0 .9-.3-.1-.5-2.3-.4-2.2 0-3 .2-1.7.4"/><path fill="#FFF" fill-opacity=".5" d="M566.3 100.7c1.5.2 3.9.2 5.5 0 1.5-.2.2-.4-2.8-.4s-4.3.2-2.7.4M390.5 158c0 30 .1 42.2.2 27.2.2-14.9.2-39.5 0-54.5-.1-14.9-.2-2.7-.2 27.3m78.5-21.6c0 .2.8 1 1.8 1.7 1.5 1.3 1.6 1.2.3-.4s-2.1-2.1-2.1-1.3m-45.7 71.3c3.7.2 9.7.2 13.5 0 3.7-.2.6-.3-6.8-.3s-10.5.1-6.7.3m144.5 1c.6.2 1.8.2 2.5 0 .6-.3.1-.5-1.3-.5s-1.9.2-1.2.5m-51.8 1.7c0 .2.8 1 1.8 1.7 1.5 1.3 1.6 1.2.3-.4s-2.1-2.1-2.1-1.3"/><path fill="#FFF" fill-opacity=".3" d="M416.5 166.5c0 22.5.1 31.9.2 20.8.2-11.1.2-29.5 0-41-.1-11.4-.2-2.4-.2 20.2"/><path fill="#FFF" fill-opacity=".1" d="M480.3 166.5c0 2.7.2 3.8.4 2.2.2-1.5.2-3.7 0-5-.2-1.2-.4 0-.4 2.8m47.9.5c0 1.4.2 1.9.5 1.2.2-.6.2-1.8 0-2.5-.3-.6-.5-.1-.5 1.3m-37.3 44.7-2.4 2.8 2.8-2.4c1.5-1.4 2.7-2.6 2.7-2.8 0-.8-.8-.1-3.1 2.4m27.1 1.7c0 .2.8 1 1.8 1.7 1.5 1.3 1.6 1.2.3-.4s-2.1-2.1-2.1-1.3"/><path fill="#BFBFBF" fill-opacity=".6" d="M481.3 167c0 2.5.2 3.5.4 2.2.2-1.2.2-3.2 0-4.5-.2-1.2-.4-.2-.4 2.3m45.8-.4c0 1.1.3 1.4.6.6.3-.7.2-1.6-.1-1.9-.3-.4-.6.2-.5 1.3"/><path fill="#BFBFBF" fill-opacity=".8" d="M415.5 126.3c-.3.6-.4 19.2-.3 41.2l.3 40 .5-41.3c.3-22.6.4-41.2.2-41.2-.1 0-.5.6-.7 1.3"/><path fill="#BFBFBF" fill-opacity=".9" d="m519.9 119.7-2.4 2.8 2.8-2.4c1.5-1.4 2.7-2.6 2.7-2.8 0-.8-.8-.1-3.1 2.4m-32.9-.4c0 .2 1.5 1.6 3.3 3.3l3.2 2.9-2.9-3.3c-2.8-3-3.6-3.7-3.6-2.9M470.5 137c1 1.1 2 2 2.3 2s-.3-.9-1.3-2-2-2-2.3-2 .3.9 1.3 2m65.5 57.3c0 .2 1.5 1.6 3.3 3.3l3.2 2.9-2.9-3.3c-2.8-3-3.6-3.7-3.6-2.9m-68.1 4.4c-1.3 1.6-1.2 1.7.4.4.9-.7 1.7-1.5 1.7-1.7 0-.8-.8-.3-2.1 1.3m129.5.5c-.4.7-.4 1 .1.6.4-.4 1.5-.2 2.4.5 1.4 1.1 1.4 1 .2-.6-1.6-2-1.8-2.1-2.7-.5M517.5 211c1 1.1 2 2 2.3 2s-.3-.9-1.3-2-2-2-2.3-2 .3.9 1.3 2m-31.6 3.7c-1.3 1.6-1.2 1.7.4.4s2.1-2.1 1.3-2.1c-.2 0-1 .8-1.7 1.7m36.1.7c0 .2.8 1 1.8 1.7 1.5 1.3 1.6 1.2.3-.4s-2.1-2.1-2.1-1.3"/><path fill="#FFF" d="M552.5 102.6c-3.8.8-10.8 3.3-15.4 5.6-11.2 5.3-22 15.9-27.4 26.7-2 4-3.7 8-3.7 8.7 0 3.3-2.1.9-5.6-6.4-7.3-15.1-22.5-26.9-40.5-31.2-7.5-1.8-11.8-2-38.6-2H391v55c0 30.2-.4 55-.8 55s-13.5-24.8-29.1-55c-21-40.8-28.8-55-30.1-55-1.2 0-9.9 15.9-33.6 62.1-17.5 34.2-32 62.6-32.2 63-.2.5 5.7.9 13.1.9h13.5l4-8.5 4.1-8.5h62.6l3.9 8.5 3.9 8.5H408c48.4 0 56.9-1.3 72-11.1 8.9-5.8 15.5-13.1 19.8-22 2-4.3 4.2-7.8 4.7-7.8.6 0 2.4 3 4 6.7 7.7 17.1 23.8 30.2 43 34.8 9.2 2.2 25.9 2.2 34.5 0 10.5-2.7 26-10.7 26-13.5 0-.4-3-4.7-6.6-9.5l-6.5-8.7-3.2 2.1c-17.8 11.8-42.8 10-56.8-4.1-16.5-16.4-15.9-45.5 1.3-61.4 8.5-7.9 14.5-10 28.8-9.9 12.3 0 17.1 1.3 25.8 6.8l3.9 2.4 6.6-8.9c3.7-4.9 6.7-9.3 6.7-9.9 0-2-12.4-9-20.4-11.6-10.4-3.4-28.4-4.2-39.1-1.8M446.9 126c14.8 1.9 25.6 9.4 31.4 21.8 3.1 6.4 3.2 7.3 3.2 18.7-.1 14.3-1.9 20.1-8.9 28-8.9 10.2-19.1 13.5-42.3 13.5H415v-83h12.3c6.7 0 15.6.5 19.6 1m-104.4 44.6c5.5 11.9 10.2 22.1 10.3 22.5.2.5-9.6.9-21.8.9-13.2 0-22-.4-21.8-.9s4.8-10.7 10.3-22.5c6.7-14.5 10.4-21.6 11.5-21.6 1 0 4.8 7.2 11.5 21.6"/><path fill="#FFF" fill-opacity=".7" d="M328.6 103.9c-.3.4.6.6 1.9.3 1.4-.2 2.5-.6 2.5-.8 0-.8-3.9-.4-4.4.5m76.2-.2c7.9.2 20.5.2 28 0 7.5-.1 1.1-.3-14.3-.3s-21.6.2-13.7.3m18 22c3.4.2 9 .2 12.5 0 3.4-.2.6-.3-6.3-.3s-9.7.1-6.2.3m104.3 44.9c0 1.1.3 1.4.6.6.3-.7.2-1.6-.1-1.9-.3-.4-.6.2-.5 1.3"/><path fill="#FFF" fill-opacity=".6" d="M489.9 211.7c-1.3 1.6-1.2 1.7.4.4.9-.7 1.7-1.5 1.7-1.7 0-.8-.8-.3-2.1 1.3"/></svg>

<?xml version="1.0" encoding="UTF-8" standalone="no"?>
<!DOCTYPE svg PUBLIC "-//W3C//DTD SVG 1.1//EN" "http://www.w3.org/Graphics/SVG/1.1/DTD/svg11.dtd">
<svg width="100%" height="100%" viewBox="0 0 1024 1024" version="1.1" xmlns="http://www.w3.org/2000/svg" xmlns:xlink="http://www.w3.org/1999/xlink" xml:space="preserve" xmlns:serif="http://www.serif.com/" style="fill-rule:evenodd;clip-rule:evenodd;stroke-linejoin:round;stroke-miterlimit:2;">
    <g transform="matrix(2.66065,0,0,2.66065,-654.954,68.3815)">
        <path d="M552.5,102.6C548.7,103.4 541.7,105.9 537.1,108.2C525.9,113.5 515.1,124.1 509.7,134.9C507.7,138.9 506,142.9 506,143.6C506,146.9 503.9,144.5 500.4,137.2C493.1,122.1 477.9,110.3 459.9,106C452.4,104.2 448.1,104 421.3,104L391,104L391,159C391,189.2 390.6,214 390.2,214C389.8,214 376.7,189.2 361.1,159C340.1,118.2 332.3,104 331,104C329.8,104 321.1,119.9 297.4,166.1C279.9,200.3 265.4,228.7 265.2,229.1C265,229.6 270.9,230 278.3,230L291.8,230L295.8,221.5L299.9,213L362.5,213L370.3,230L408,230C456.4,230 464.9,228.7 480,218.9C488.9,213.1 495.5,205.8 499.8,196.9C501.8,192.6 504,189.1 504.5,189.1C505.1,189.1 506.9,192.1 508.5,195.8C516.2,212.9 532.3,226 551.5,230.6C560.7,232.8 577.4,232.8 586,230.6C596.5,227.9 612,219.9 612,217.1C612,216.7 609,212.4 605.4,207.6L598.9,198.9L595.7,201C577.9,212.8 552.9,211 538.9,196.9C522.4,180.5 523,151.4 540.2,135.5C548.7,127.6 554.7,125.5 569,125.6C581.3,125.6 586.1,126.9 594.8,132.4L598.7,134.8L605.3,125.9C609,121 612,116.6 612,116C612,114 599.6,107 591.6,104.4C581.2,101 563.2,100.2 552.5,102.6M446.9,126C461.7,127.9 472.5,135.4 478.3,147.8C481.4,154.2 481.5,155.1 481.5,166.5C481.4,180.8 479.6,186.6 472.6,194.5C463.7,204.7 453.5,208 430.3,208L415,208L415,125L427.3,125C434,125 442.9,125.5 446.9,126M342.5,170.6C348,182.5 352.7,192.7 352.8,193.1C353,193.6 343.2,194 331,194C317.8,194 309,193.6 309.2,193.1C309.4,192.6 314,182.4 319.5,170.6C326.2,156.1 329.9,149 331,149C332,149 335.8,156.2 342.5,170.6" style="fill-rule:nonzero;stroke:white;stroke-width:0.38px;"/>
    </g>
</svg>
